src/assets/linkedin.svg

<svg width="25" height="25" viewBox="0 0 25 25" fill="none" xmlns="http://www.w3.org/2000/svg">
<g clip-path="url(#clip0_346_652)">
<path d="M22.6562 0.586028H2.34375C1.88287 0.581337 1.43896 0.759669 1.10941 1.08189C0.779865 1.40412 0.591604 1.84391 0.585938 2.30478V22.6993C0.592628 23.1595 0.78134 23.5983 1.11078 23.9197C1.44021 24.2411 1.88354 24.4189 2.34375 24.4142H22.6562C23.1172 24.4178 23.5608 24.2389 23.8901 23.9165C24.2195 23.594 24.4079 23.1543 24.4141 22.6935V2.29892C24.4058 1.8394 24.2166 1.40171 23.8874 1.08096C23.5583 0.760216 23.1158 0.582352 22.6562 0.586028ZM7.65039 20.8985H4.11328V9.51767H7.65039V20.8985ZM5.89258 7.96689C5.48689 7.96727 5.0902 7.84733 4.75269 7.62222C4.41519 7.39711 4.15203 7.07696 3.99651 6.70226C3.84099 6.32756 3.8001 5.91516 3.87901 5.51722C3.95792 5.11928 4.15308 4.75368 4.43981 4.46668C4.72654 4.17967 5.09195 3.98416 5.48982 3.90487C5.88768 3.82559 6.30013 3.86608 6.67497 4.02125C7.04982 4.17641 7.37022 4.43926 7.59565 4.77655C7.82108 5.11384 7.94141 5.51042 7.94141 5.91611C7.94089 6.18575 7.88721 6.45264 7.78343 6.70152C7.67965 6.95039 7.52781 7.17635 7.3366 7.36647C7.14539 7.55659 6.91857 7.70714 6.66911 7.8095C6.41965 7.91185 6.15245 7.96401 5.88281 7.96298L5.89258 7.96689ZM20.8984 20.8985H17.3613V15.3614C17.3613 14.0431 17.3379 12.3458 15.5234 12.3458C13.709 12.3458 13.4004 13.7833 13.4004 15.2755V20.8985H9.86914V9.51767H13.2598V11.0802H13.3066C13.7793 10.1856 14.9316 9.24228 16.6523 9.24228C20.2344 9.23447 20.8984 11.5919 20.8984 14.6485V20.8985Z" fill="white"/>
</g>
<defs>
<clipPath id="clip0_346_652">
<rect width="25" height="25" fill="white"/>
</clipPath>
</defs>
</svg>

<svg width="25" height="25" fill="none" xmlns="http://www.w3.org/2000/svg"><g clip-path="url(#a)"><path d="M22.656.586H2.344A1.74 1.74 0 0 0 .586 2.305v20.394a1.74 1.74 0 0 0 1.758 1.715h20.312a1.744 1.744 0 0 0 1.758-1.72V2.299A1.744 1.744 0 0 0 22.656.586ZM7.65 20.899H4.113V9.517H7.65v11.38ZM5.893 7.966a2.05 2.05 0 1 1 1.89-1.265 2.05 2.05 0 0 1-1.9 1.261l.01.004Zm15.005 12.931h-3.537v-5.537c0-1.318-.023-3.015-1.838-3.015-1.814 0-2.123 1.437-2.123 2.93v5.622H9.87V9.518h3.39v1.562h.047c.472-.894 1.625-1.838 3.345-1.838 3.582-.008 4.246 2.35 4.246 5.406v6.25Z" fill="currentColor"/></g><defs><clipPath id="a"><path fill="currentColor" d="M0 0h25v25H0z"/></clipPath></defs></svg>
